svgs/geto.svg

<svg width="192" height="192" viewBox="0 0 192 192" fill="none" xmlns="http://www.w3.org/2000/svg">
<path d="M101.001 22C109.285 22.0003 116.001 28.7159 116.001 37C116.001 47.8258 127.72 54.5925 137.095 49.1797C144.27 45.0376 153.443 47.4957 157.586 54.6699L162.586 63.3301C166.728 70.5045 164.27 79.6782 157.095 83.8203C147.719 89.2331 147.72 102.766 157.095 108.18C164.27 112.322 166.728 121.496 162.586 128.67L157.586 137.33C153.443 144.504 144.27 146.962 137.095 142.82C127.72 137.407 116.001 144.174 116.001 155C116.001 163.284 109.285 170 101.001 170H91.0006C82.7163 170 76.0006 163.284 76.0006 155C76.0006 144.174 64.2808 137.407 54.9049 142.82C47.7306 146.962 38.5568 144.504 34.4147 137.33L29.4147 128.67C25.2725 121.496 27.7305 112.322 34.9049 108.18C44.2804 102.766 44.2808 89.2331 34.9049 83.8203C27.7306 79.6782 25.2717 70.5044 29.4137 63.3301L34.4137 54.6699C38.5558 47.4955 47.7305 45.0376 54.9049 49.1797C64.2808 54.5925 76.0006 47.8262 76.0006 37C76.0006 28.7157 82.7163 22 91.0006 22H101.001Z" stroke="black" stroke-width="12"/>
<path d="M114 96C114 105.941 105.941 114 96.0001 114C86.059 114 78.0001 105.941 78.0001 96C78.0001 86.0589 86.059 78 96.0001 78C105.941 78 114 86.0589 114 96Z" stroke="black" stroke-width="12"/>
</svg>

<svg xmlns="http://www.w3.org/2000/svg" width="192" height="192" fill="none" viewBox="0 0 192 192"><path stroke="#000" stroke-width="12" d="M101.001 22c8.284 0 15 6.716 15 15 0 10.826 11.719 17.593 21.094 12.18 7.175-4.142 16.348-1.684 20.491 5.49l5 8.66c4.142 7.174 1.684 16.348-5.491 20.49-9.376 5.413-9.375 18.946 0 24.36 7.175 4.142 9.633 13.316 5.491 20.49l-5 8.66c-4.143 7.174-13.316 9.632-20.491 5.49-9.375-5.413-21.094 1.354-21.094 12.18 0 8.284-6.716 15-15 15h-10c-8.285 0-15-6.716-15-15 0-10.826-11.72-17.593-21.096-12.18-7.174 4.142-16.348 1.684-20.49-5.49l-5-8.66c-4.142-7.174-1.684-16.348 5.49-20.49 9.375-5.414 9.376-18.947 0-24.36-7.174-4.142-9.633-13.316-5.491-20.49l5-8.66c4.142-7.175 13.316-9.632 20.49-5.49 9.377 5.413 21.097-1.354 21.097-12.18 0-8.284 6.715-15 15-15z"/><path stroke="#000" stroke-width="12" d="M114 96c0 9.941-8.059 18-18 18s-18-8.059-18-18 8.059-18 18-18 18 8.059 18 18Z"/></svg>
